icons/.local/share/icons/kora/mimetypes/scalable/application-x-kicad-project.svg

<svg xmlns="http://www.w3.org/2000/svg" width="48" height="48">
 <path style="opacity:0.2" d="M 10,5 C 8.892,5 8,5.892 8,7 V 43 C 8,44.108 8.892,45 10,45 H 38 C 39.108,45 40,44.108 40,43 V 17 L 28,5 Z"/>
 <path style="fill:#cd9f00" d="M 10,4 C 8.892,4 8,4.892 8,6 V 42 C 8,43.108 8.892,44 10,44 H 38 C 39.108,44 40,43.108 40,42 V 16 L 30,14 28,4 Z"/>
 <path style="opacity:0.2" d="M 40,17 28,5 V 15 C 28,16.108 28.892,17 30,17 Z"/>
 <path style="fill:#e9c235" d="M 40,16 28,4 V 14 C 28,15.108 28.892,16 30,16 Z"/>
 <path style="opacity:0.2;fill:#ffffff" d="M 10 4 C 8.892 4 8 4.892 8 6 L 8 7 C 8 5.892 8.892 5 10 5 L 28 5 L 28 4 L 10 4 z"/>
 <path style="opacity:0.1" d="m 18,12 v 1 5 h -2 v 9 h 2 v 3.5 L 16,32 v -1 -1 h -2 v 1 2 H 9 8 v 2 h 1 5 v 3 1 h 2 v -1 -1.585938 l 2,2 V 42 h -1 -1 v 2 h 1 1.832031 a 1.0001,1.0001 0 0 0 0.326172,0 H 21 22 v -2 h -1 -1 v -3.824219 a 1.0001,1.0001 0 0 0 -0.115234,-0.65625 1.0001,1.0001 0 0 0 -0.28125,-0.330078 l -3.082032,-3.082031 2.957032,-2.214844 A 1.0001,1.0001 0 0 0 19.904297,31.439453 1.0001,1.0001 0 0 0 20,30.851562 V 30 h 8 v 2 h 8.414062 l 3,-3 -3,-3 H 28 v 1 1 h -8 v -1 h 1 1 v -2 -7 h -2 v -5 -1 z m 0,8 h 2 v 5 h -2 z m 12,8 h 5.585938 l 1,1 -1,1 H 30 Z m -7,6 v 11 h 2 v -9 h 15 v -2 z m 3,3 v 2 h 4 v -2 z m 6,0 v 2 h 7 v -2 z m -6,5 v 2 h 5 v -2 z m 9,0 v 2 h 4 v -2 z"/>
 <path style="fill:#9f2e03" d="M 18 11 L 18 12 L 18 17 L 16 17 L 16 26 L 18 26 L 18 29.5 L 16 31 L 16 30 L 16 29 L 14 29 L 14 30 L 14 32 L 9 32 L 8 32 L 8 34 L 9 34 L 14 34 L 14 37 L 14 38 L 16 38 L 16 37 L 16 35.414062 L 18 37.414062 L 18 41 L 17 41 L 16 41 L 16 43 L 17 43 L 18.832031 43 A 1.0001 1.0001 0 0 0 19.158203 43 L 21 43 L 22 43 L 22 41 L 21 41 L 20 41 L 20 37.175781 A 1.0001 1.0001 0 0 0 19.884766 36.519531 A 1.0001 1.0001 0 0 0 19.603516 36.189453 L 16.521484 33.107422 L 19.478516 30.892578 A 1.0001 1.0001 0 0 0 19.904297 30.439453 A 1.0001 1.0001 0 0 0 20 29.851562 L 20 29 L 28 29 L 28 31 L 36.414062 31 L 39.414062 28 L 36.414062 25 L 28 25 L 28 26 L 28 27 L 20 27 L 20 26 L 21 26 L 22 26 L 22 24 L 22 17 L 20 17 L 20 12 L 20 11 L 18 11 z M 18 19 L 20 19 L 20 24 L 18 24 L 18 19 z M 30 27 L 35.585938 27 L 36.585938 28 L 35.585938 29 L 30 29 L 30 27 z M 23 33 L 23 44 L 25 44 L 25 35 L 40 35 L 40 33 L 23 33 z M 26 36 L 26 38 L 30 38 L 30 36 L 26 36 z M 32 36 L 32 38 L 39 38 L 39 36 L 32 36 z M 26 41 L 26 43 L 31 43 L 31 41 L 26 41 z M 35 41 L 35 43 L 39 43 L 39 41 L 35 41 z"/>
</svg>

<svg clip-rule="evenodd" fill-rule="evenodd" stroke-linejoin="round" stroke-miterlimit="2" viewBox="0 0 48 48" xmlns="http://www.w3.org/2000/svg">
 <linearGradient id="a" x2="1" gradientTransform="matrix(0 -49.619 49.619 0 615.22 51.088)" gradientUnits="userSpaceOnUse">
  <stop stop-color="#8a2811" offset="0"/>
  <stop stop-color="#cd8769" offset="1"/>
 </linearGradient>
 <path transform="matrix(.75 0 0 .75 0 .199125)" d="m54 3.146c0-.926-.751-1.677-1.677-1.677h-34.705c-2.02 0-3.958.803-5.387 2.231-1.428 1.429-2.231 3.367-2.231 5.387v45.295c0 2.02.803 3.958 2.231 5.387 1.429 1.428 3.367 2.231 5.387 2.231h28.764c2.02 0 3.958-.803 5.387-2.231 1.428-1.429 2.231-3.367 2.231-5.387z" fill="url(#a)"/>
 <path transform="translate(0 -3.5)" d="m18 11v6h-2v9h2v3.5l-2 1.5v-2h-2v3h-6v2h6v4h2v-2.586l2 2v3.586h-2v2h2.832c.108.018.218.018.326 0h2.842v-2h-2v-3.824c.038-.226-.003-.457-.115-.656-.069-.13-.165-.242-.281-.331l-3.083-3.082 2.958-2.214c.186-.102.335-.261.425-.454.091-.181.125-.386.096-.587v-.852h8v2h8.414l3-3-3-3h-8.414v2h-8v-1h2v-9h-2v-6zm0 8h2v5h-2zm12 8h5.586l1 1-1 1h-5.586zm-7 6v11h2v-9h15v-2zm3 3v2h4v-2zm6 0v2h7v-2zm-6 5v2h5v-2zm9 0v2h4v-2z" fill="#e8825c" fill-rule="nonzero"/>
</svg>
